img/Protection 2.svg

<svg width="189" height="137" viewBox="0 0 189 137" fill="none" xmlns="http://www.w3.org/2000/svg">
<path d="M23.922 9.795C24.636 10.0217 25.1913 10.39 25.588 10.9C25.996 11.3987 26.2 11.988 26.2 12.668C26.2 13.382 25.9677 14.0053 25.503 14.538C25.0383 15.0593 24.415 15.4617 23.633 15.745C22.8623 16.0283 22.018 16.17 21.1 16.17C20.3067 16.17 19.5077 16.0623 18.703 15.847C17.9097 15.6203 17.173 15.286 16.493 14.844L17.207 13.229C17.7283 13.5803 18.3063 13.8523 18.941 14.045C19.5757 14.2263 20.2047 14.317 20.828 14.317C21.7233 14.317 22.4657 14.1413 23.055 13.79C23.6557 13.4387 23.956 12.957 23.956 12.345C23.956 11.8237 23.7407 11.427 23.31 11.155C22.8793 10.883 22.2843 10.747 21.525 10.747H18.754V9.013H21.355C22.0123 9.013 22.528 8.877 22.902 8.605C23.276 8.333 23.463 7.96467 23.463 7.5C23.463 6.94467 23.208 6.514 22.698 6.208C22.1993 5.902 21.559 5.749 20.777 5.749C20.2443 5.749 19.6947 5.82833 19.128 5.987C18.5613 6.13433 18.0287 6.35533 17.53 6.65L16.833 4.865C17.445 4.53633 18.091 4.29267 18.771 4.134C19.4623 3.964 20.148 3.879 20.828 3.879C21.712 3.879 22.5223 4.015 23.259 4.287C24.007 4.559 24.602 4.95 25.044 5.46C25.486 5.95867 25.707 6.548 25.707 7.228C25.707 7.81733 25.5483 8.333 25.231 8.775C24.9137 9.217 24.4773 9.557 23.922 9.795ZM31.851 6.82C33.1884 6.82 34.2084 7.143 34.911 7.789C35.625 8.42367 35.982 9.387 35.982 10.679V16H33.976V14.895C33.7154 15.2917 33.3414 15.5977 32.854 15.813C32.378 16.017 31.8 16.119 31.12 16.119C30.44 16.119 29.845 16.0057 29.335 15.779C28.825 15.541 28.4284 15.218 28.145 14.81C27.873 14.3907 27.737 13.9203 27.737 13.399C27.737 12.583 28.0374 11.9313 28.638 11.444C29.25 10.9453 30.2077 10.696 31.511 10.696H33.857V10.56C33.857 9.92533 33.6644 9.438 33.279 9.098C32.905 8.758 32.344 8.588 31.596 8.588C31.086 8.588 30.5817 8.66733 30.083 8.826C29.5957 8.98467 29.182 9.20567 28.842 9.489L28.009 7.942C28.485 7.57933 29.0574 7.30167 29.726 7.109C30.3947 6.91633 31.103 6.82 31.851 6.82ZM31.562 14.572C32.0947 14.572 32.565 14.453 32.973 14.215C33.3924 13.9657 33.687 13.6143 33.857 13.161V12.107H31.664C30.44 12.107 29.828 12.5093 29.828 13.314C29.828 13.6993 29.981 14.0053 30.287 14.232C30.593 14.4587 31.018 14.572 31.562 14.572ZM51.9906 6.922V16H38.6116V6.922H40.7366V14.198H44.2556V6.922H46.3806V14.198H49.8656V6.922H51.9906ZM53.2996 14.198V17.87H51.3106V16H49.7976V14.198H53.2996ZM54.8479 6.922H56.9729V12.906L61.9879 6.922H63.9259V16H61.8009V10.016L56.8029 16H54.8479V6.922ZM73.9754 8.724H70.7964V16H68.6714V8.724H65.4754V6.922H73.9754V8.724ZM78.8999 6.82C80.2372 6.82 81.2572 7.143 81.9599 7.789C82.6739 8.42367 83.0309 9.387 83.0309 10.679V16H81.0249V14.895C80.7642 15.2917 80.3902 15.5977 79.9029 15.813C79.4269 16.017 78.8489 16.119 78.1689 16.119C77.4889 16.119 76.8939 16.0057 76.3839 15.779C75.8739 15.541 75.4772 15.218 75.1939 14.81C74.9219 14.3907 74.7859 13.9203 74.7859 13.399C74.7859 12.583 75.0862 11.9313 75.6869 11.444C76.2989 10.9453 77.2565 10.696 78.5599 10.696H80.9059V10.56C80.9059 9.92533 80.7132 9.438 80.3279 9.098C79.9539 8.758 79.3929 8.588 78.6449 8.588C78.1349 8.588 77.6305 8.66733 77.1319 8.826C76.6445 8.98467 76.2309 9.20567 75.8909 9.489L75.0579 7.942C75.5339 7.57933 76.1062 7.30167 76.7749 7.109C77.4435 6.91633 78.1519 6.82 78.8999 6.82ZM78.6109 14.572C79.1435 14.572 79.6139 14.453 80.0219 14.215C80.4412 13.9657 80.7359 13.6143 80.9059 13.161V12.107H78.7129C77.4889 12.107 76.8769 12.5093 76.8769 13.314C76.8769 13.6993 77.0299 14.0053 77.3359 14.232C77.6419 14.4587 78.0669 14.572 78.6109 14.572ZM94.4047 16.119C93.4867 16.119 92.6593 15.9207 91.9227 15.524C91.186 15.1273 90.608 14.5777 90.1887 13.875C89.7807 13.161 89.5767 12.3563 89.5767 11.461C89.5767 10.5657 89.7807 9.76667 90.1887 9.064C90.608 8.36133 91.186 7.81167 91.9227 7.415C92.6593 7.01833 93.4867 6.82 94.4047 6.82C95.334 6.82 96.167 7.01833 96.9037 7.415C97.6403 7.81167 98.2127 8.36133 98.6207 9.064C99.04 9.76667 99.2497 10.5657 99.2497 11.461C99.2497 12.3563 99.04 13.161 98.6207 13.875C98.2127 14.5777 97.6403 15.1273 96.9037 15.524C96.167 15.9207 95.334 16.119 94.4047 16.119ZM94.4047 14.3C95.1867 14.3 95.8327 14.0393 96.3427 13.518C96.8527 12.9967 97.1077 12.311 97.1077 11.461C97.1077 10.611 96.8527 9.92533 96.3427 9.404C95.8327 8.88267 95.1867 8.622 94.4047 8.622C93.6227 8.622 92.9767 8.88267 92.4667 9.404C91.968 9.92533 91.7187 10.611 91.7187 11.461C91.7187 12.311 91.968 12.9967 92.4667 13.518C92.9767 14.0393 93.6227 14.3 94.4047 14.3ZM108.208 8.724H105.029V16H102.904V8.724H99.7079V6.922H108.208V8.724ZM123.016 6.922L118.766 16.731C118.369 17.717 117.887 18.4083 117.321 18.805C116.754 19.213 116.068 19.417 115.264 19.417C114.81 19.417 114.363 19.3433 113.921 19.196C113.479 19.0487 113.116 18.8447 112.833 18.584L113.683 17.02C113.887 17.2127 114.125 17.3657 114.397 17.479C114.68 17.5923 114.963 17.649 115.247 17.649C115.621 17.649 115.927 17.5527 116.165 17.36C116.414 17.1673 116.641 16.8443 116.845 16.391L116.998 16.034L113.037 6.922H115.247L118.103 13.637L120.976 6.922H123.016ZM133.617 14.198V18.023H131.628V16H124.624V18.023H122.652V14.198H123.077C123.655 14.1753 124.046 13.807 124.25 13.093C124.465 12.3677 124.607 11.3477 124.675 10.033L124.794 6.922H132.274V14.198H133.617ZM126.613 10.186C126.568 11.2287 126.483 12.0787 126.358 12.736C126.233 13.3933 126.007 13.8807 125.678 14.198H130.149V8.724H126.664L126.613 10.186ZM138.898 6.82C140.235 6.82 141.255 7.143 141.958 7.789C142.672 8.42367 143.029 9.387 143.029 10.679V16H141.023V14.895C140.762 15.2917 140.388 15.5977 139.901 15.813C139.425 16.017 138.847 16.119 138.167 16.119C137.487 16.119 136.892 16.0057 136.382 15.779C135.872 15.541 135.475 15.218 135.192 14.81C134.92 14.3907 134.784 13.9203 134.784 13.399C134.784 12.583 135.084 11.9313 135.685 11.444C136.297 10.9453 137.255 10.696 138.558 10.696H140.904V10.56C140.904 9.92533 140.711 9.438 140.326 9.098C139.952 8.758 139.391 8.588 138.643 8.588C138.133 8.588 137.629 8.66733 137.13 8.826C136.643 8.98467 136.229 9.20567 135.889 9.489L135.056 7.942C135.532 7.57933 136.104 7.30167 136.773 7.109C137.442 6.91633 138.15 6.82 138.898 6.82ZM138.609 14.572C139.142 14.572 139.612 14.453 140.02 14.215C140.439 13.9657 140.734 13.6143 140.904 13.161V12.107H138.711C137.487 12.107 136.875 12.5093 136.875 13.314C136.875 13.6993 137.028 14.0053 137.334 14.232C137.64 14.4587 138.065 14.572 138.609 14.572ZM150.69 6.82C151.574 6.82 152.362 7.01267 153.053 7.398C153.756 7.78333 154.306 8.32733 154.702 9.03C155.099 9.73267 155.297 10.543 155.297 11.461C155.297 12.379 155.099 13.195 154.702 13.909C154.306 14.6117 153.756 15.1557 153.053 15.541C152.362 15.9263 151.574 16.119 150.69 16.119C149.466 16.119 148.497 15.711 147.783 14.895V19.298H145.658V6.922H147.681V8.112C148.033 7.68133 148.463 7.35833 148.973 7.143C149.495 6.92767 150.067 6.82 150.69 6.82ZM150.452 14.3C151.234 14.3 151.875 14.0393 152.373 13.518C152.883 12.9967 153.138 12.311 153.138 11.461C153.138 10.611 152.883 9.92533 152.373 9.404C151.875 8.88267 151.234 8.622 150.452 8.622C149.942 8.622 149.483 8.741 149.075 8.979C148.667 9.20567 148.344 9.53433 148.106 9.965C147.868 10.3957 147.749 10.8943 147.749 11.461C147.749 12.0277 147.868 12.5263 148.106 12.957C148.344 13.3877 148.667 13.722 149.075 13.96C149.483 14.1867 149.942 14.3 150.452 14.3ZM160.679 6.82C162.016 6.82 163.036 7.143 163.739 7.789C164.453 8.42367 164.81 9.387 164.81 10.679V16H162.804V14.895C162.543 15.2917 162.169 15.5977 161.682 15.813C161.206 16.017 160.628 16.119 159.948 16.119C159.268 16.119 158.673 16.0057 158.163 15.779C157.653 15.541 157.256 15.218 156.973 14.81C156.701 14.3907 156.565 13.9203 156.565 13.399C156.565 12.583 156.865 11.9313 157.466 11.444C158.078 10.9453 159.036 10.696 160.339 10.696H162.685V10.56C162.685 9.92533 162.492 9.438 162.107 9.098C161.733 8.758 161.172 8.588 160.424 8.588C159.914 8.588 159.41 8.66733 158.911 8.826C158.424 8.98467 158.01 9.20567 157.67 9.489L156.837 7.942C157.313 7.57933 157.885 7.30167 158.554 7.109C159.223 6.91633 159.931 6.82 160.679 6.82ZM160.39 14.572C160.923 14.572 161.393 14.453 161.801 14.215C162.22 13.9657 162.515 13.6143 162.685 13.161V12.107H160.492C159.268 12.107 158.656 12.5093 158.656 13.314C158.656 13.6993 158.809 14.0053 159.115 14.232C159.421 14.4587 159.846 14.572 160.39 14.572ZM21.559 31.119C20.6183 31.119 19.774 30.9207 19.026 30.524C18.278 30.1273 17.6943 29.5777 17.275 28.875C16.8557 28.161 16.646 27.3563 16.646 26.461C16.646 25.5657 16.8557 24.7667 17.275 24.064C17.6943 23.3613 18.2723 22.8117 19.009 22.415C19.757 22.0183 20.607 21.82 21.559 21.82C22.4543 21.82 23.2363 22.0013 23.905 22.364C24.585 22.7267 25.095 23.248 25.435 23.928L23.803 24.88C23.5423 24.4607 23.2137 24.149 22.817 23.945C22.4317 23.7297 22.0067 23.622 21.542 23.622C20.7487 23.622 20.0913 23.8827 19.57 24.404C19.0487 24.914 18.788 25.5997 18.788 26.461C18.788 27.3223 19.043 28.0137 19.553 28.535C20.0743 29.045 20.7373 29.3 21.542 29.3C22.0067 29.3 22.4317 29.198 22.817 28.994C23.2137 28.7787 23.5423 28.4613 23.803 28.042L25.435 28.994C25.0837 29.674 24.568 30.201 23.888 30.575C23.2193 30.9377 22.443 31.119 21.559 31.119ZM32.1359 22.364C32.9973 22.364 33.7566 22.551 34.4139 22.925C35.0713 23.2877 35.5813 23.7977 35.9439 24.455C36.3179 25.1123 36.5049 25.866 36.5049 26.716C36.5049 27.5887 36.3009 28.365 35.8929 29.045C35.4849 29.7137 34.9126 30.235 34.1759 30.609C33.4393 30.983 32.6006 31.17 31.6599 31.17C30.0846 31.17 28.8663 30.6487 28.0049 29.606C27.1436 28.5633 26.7129 27.0617 26.7129 25.101C26.7129 23.2763 27.1039 21.8313 27.8859 20.766C28.6679 19.7007 29.8636 18.998 31.4729 18.658L35.6889 17.757L35.9949 19.661L32.1699 20.443C31.0706 20.6697 30.2489 21.055 29.7049 21.599C29.1609 22.143 28.8436 22.908 28.7529 23.894C29.1609 23.4067 29.6539 23.0327 30.2319 22.772C30.8099 22.5 31.4446 22.364 32.1359 22.364ZM31.7109 29.453C32.4929 29.453 33.1219 29.2037 33.5979 28.705C34.0853 28.195 34.3289 27.549 34.3289 26.767C34.3289 25.985 34.0853 25.356 33.5979 24.88C33.1219 24.404 32.4929 24.166 31.7109 24.166C30.9176 24.166 30.2773 24.404 29.7899 24.88C29.3026 25.356 29.0589 25.985 29.0589 26.767C29.0589 27.5603 29.3026 28.2063 29.7899 28.705C30.2886 29.2037 30.9289 29.453 31.7109 29.453ZM42.6078 31.119C41.6898 31.119 40.8625 30.9207 40.1258 30.524C39.3891 30.1273 38.8111 29.5777 38.3918 28.875C37.9838 28.161 37.7798 27.3563 37.7798 26.461C37.7798 25.5657 37.9838 24.7667 38.3918 24.064C38.8111 23.3613 39.3891 22.8117 40.1258 22.415C40.8625 22.0183 41.6898 21.82 42.6078 21.82C43.5371 21.82 44.3701 22.0183 45.1068 22.415C45.8435 22.8117 46.4158 23.3613 46.8238 24.064C47.2431 24.7667 47.4528 25.5657 47.4528 26.461C47.4528 27.3563 47.2431 28.161 46.8238 28.875C46.4158 29.5777 45.8435 30.1273 45.1068 30.524C44.3701 30.9207 43.5371 31.119 42.6078 31.119ZM42.6078 29.3C43.3898 29.3 44.0358 29.0393 44.5458 28.518C45.0558 27.9967 45.3108 27.311 45.3108 26.461C45.3108 25.611 45.0558 24.9253 44.5458 24.404C44.0358 23.8827 43.3898 23.622 42.6078 23.622C41.8258 23.622 41.1798 23.8827 40.6698 24.404C40.1711 24.9253 39.9218 25.611 39.9218 26.461C39.9218 27.311 40.1711 27.9967 40.6698 28.518C41.1798 29.0393 41.8258 29.3 42.6078 29.3ZM53.326 27.362H51.677V31H49.552V21.922H51.677V25.594H53.377L56.063 21.922H58.341L55.043 26.291L58.562 31H56.063L53.326 27.362ZM68.1142 21.922L63.8642 31.731C63.4675 32.717 62.9858 33.4083 62.4192 33.805C61.8525 34.213 61.1668 34.417 60.3622 34.417C59.9088 34.417 59.4612 34.3433 59.0192 34.196C58.5772 34.0487 58.2145 33.8447 57.9312 33.584L58.7812 32.02C58.9852 32.2127 59.2232 32.3657 59.4952 32.479C59.7785 32.5923 60.0618 32.649 60.3452 32.649C60.7192 32.649 61.0252 32.5527 61.2632 32.36C61.5125 32.1673 61.7392 31.8443 61.9432 31.391L62.0962 31.034L58.1352 21.922H60.3452L63.2012 28.637L66.0742 21.922H68.1142Z" fill="black"/>
<rect x="5" y="5" width="4" height="122" fill="#E51937"/>
<circle cx="7" cy="130" r="5.5" fill="white" stroke="#E51937" stroke-width="3"/>
</svg>

<svg width="189" height="137" fill="none" xmlns="http://www.w3.org/2000/svg"><path d="M23.922 9.795c.714.227 1.27.595 1.666 1.105.408.499.612 1.088.612 1.768 0 .714-.232 1.337-.697 1.87-.465.521-1.088.924-1.87 1.207-.77.283-1.615.425-2.533.425a9.243 9.243 0 0 1-2.397-.323 8.13 8.13 0 0 1-2.21-1.003l.714-1.615c.521.351 1.1.623 1.734.816a6.845 6.845 0 0 0 1.887.272c.895 0 1.638-.176 2.227-.527.6-.351.901-.833.901-1.445 0-.521-.215-.918-.646-1.19-.43-.272-1.026-.408-1.785-.408h-2.771V9.013h2.601c.657 0 1.173-.136 1.547-.408.374-.272.561-.64.561-1.105 0-.555-.255-.986-.765-1.292-.499-.306-1.139-.459-1.921-.459-.533 0-1.082.08-1.649.238-.567.147-1.1.368-1.598.663l-.697-1.785a7.846 7.846 0 0 1 1.938-.731 8.59 8.59 0 0 1 2.057-.255c.884 0 1.694.136 2.431.408.748.272 1.343.663 1.785 1.173.442.499.663 1.088.663 1.768 0 .59-.159 1.105-.476 1.547-.317.442-.754.782-1.309 1.02zm7.929-2.975c1.337 0 2.357.323 3.06.969.714.635 1.071 1.598 1.071 2.89V16h-2.006v-1.105c-.26.397-.635.703-1.122.918-.476.204-1.054.306-1.734.306-.68 0-1.275-.113-1.785-.34-.51-.238-.907-.561-1.19-.969a2.537 2.537 0 0 1-.408-1.411c0-.816.3-1.468.901-1.955.612-.499 1.57-.748 2.873-.748h2.346v-.136c0-.635-.193-1.122-.578-1.462-.374-.34-.935-.51-1.683-.51-.51 0-1.014.08-1.513.238-.487.159-.901.38-1.241.663l-.833-1.547c.476-.363 1.048-.64 1.717-.833a7.64 7.64 0 0 1 2.125-.289zm-.289 7.752c.533 0 1.003-.119 1.411-.357.42-.25.714-.6.884-1.054v-1.054h-2.193c-1.224 0-1.836.402-1.836 1.207 0 .385.153.691.459.918.306.227.731.34 1.275.34zm20.429-7.65V16H38.61V6.922h2.126v7.276h3.519V6.922h2.125v7.276h3.485V6.922h2.125zm1.309 7.276v3.672h-1.99V16h-1.512v-1.802H53.3zm1.548-7.276h2.125v5.984l5.015-5.984h1.938V16H61.8v-5.984L56.803 16h-1.955V6.922zm19.127 1.802h-3.179V16h-2.125V8.724h-3.196V6.922h8.5v1.802zM78.9 6.82c1.337 0 2.357.323 3.06.969.714.635 1.07 1.598 1.07 2.89V16h-2.005v-1.105c-.26.397-.635.703-1.122.918-.476.204-1.054.306-1.734.306-.68 0-1.275-.113-1.785-.34-.51-.238-.907-.561-1.19-.969a2.537 2.537 0 0 1-.408-1.411c0-.816.3-1.468.9-1.955.613-.499 1.57-.748 2.874-.748h2.346v-.136c0-.635-.193-1.122-.578-1.462-.374-.34-.935-.51-1.683-.51-.51 0-1.014.08-1.513.238-.488.159-.901.38-1.241.663l-.833-1.547c.476-.363 1.048-.64 1.717-.833A7.64 7.64 0 0 1 78.9 6.82zm-.29 7.752c.534 0 1.004-.119 1.412-.357.42-.25.714-.6.884-1.054v-1.054h-2.193c-1.224 0-1.836.402-1.836 1.207 0 .385.153.691.459.918.306.227.73.34 1.275.34zm15.795 1.547c-.918 0-1.746-.198-2.482-.595a4.416 4.416 0 0 1-1.734-1.649c-.408-.714-.612-1.519-.612-2.414 0-.895.204-1.694.612-2.397a4.416 4.416 0 0 1 1.734-1.649c.736-.397 1.564-.595 2.482-.595.929 0 1.762.198 2.499.595a4.298 4.298 0 0 1 1.717 1.649c.419.703.629 1.502.629 2.397 0 .895-.21 1.7-.63 2.414a4.298 4.298 0 0 1-1.716 1.649c-.737.397-1.57.595-2.5.595zm0-1.819c.782 0 1.428-.26 1.938-.782.51-.521.765-1.207.765-2.057 0-.85-.255-1.536-.765-2.057-.51-.521-1.156-.782-1.938-.782s-1.428.26-1.938.782c-.499.521-.748 1.207-.748 2.057 0 .85.249 1.536.748 2.057.51.521 1.156.782 1.938.782zm13.803-5.576h-3.179V16h-2.125V8.724h-3.196V6.922h8.5v1.802zm14.808-1.802l-4.25 9.809c-.397.986-.879 1.677-1.445 2.074-.567.408-1.253.612-2.057.612a4.22 4.22 0 0 1-1.343-.221c-.442-.147-.805-.351-1.088-.612l.85-1.564c.204.193.442.346.714.459.283.113.566.17.85.17.374 0 .68-.096.918-.289.249-.193.476-.516.68-.969l.153-.357-3.961-9.112h2.21l2.856 6.715 2.873-6.715h2.04zm10.601 7.276v3.825h-1.989V16h-7.004v2.023h-1.972v-3.825h.425c.578-.023.969-.391 1.173-1.105.215-.725.357-1.745.425-3.06l.119-3.111h7.48v7.276h1.343zm-7.004-4.012c-.045 1.043-.13 1.893-.255 2.55-.125.657-.351 1.145-.68 1.462h4.471V8.724h-3.485l-.051 1.462zm12.285-3.366c1.337 0 2.357.323 3.06.969.714.635 1.071 1.598 1.071 2.89V16h-2.006v-1.105c-.261.397-.635.703-1.122.918-.476.204-1.054.306-1.734.306-.68 0-1.275-.113-1.785-.34-.51-.238-.907-.561-1.19-.969a2.537 2.537 0 0 1-.408-1.411c0-.816.3-1.468.901-1.955.612-.499 1.57-.748 2.873-.748h2.346v-.136c0-.635-.193-1.122-.578-1.462-.374-.34-.935-.51-1.683-.51-.51 0-1.014.08-1.513.238a3.71 3.71 0 0 0-1.241.663l-.833-1.547c.476-.363 1.048-.64 1.717-.833a7.641 7.641 0 0 1 2.125-.289zm-.289 7.752c.533 0 1.003-.119 1.411-.357.419-.25.714-.6.884-1.054v-1.054h-2.193c-1.224 0-1.836.402-1.836 1.207 0 .385.153.691.459.918.306.227.731.34 1.275.34zM150.69 6.82c.884 0 1.672.193 2.363.578.703.385 1.253.93 1.649 1.632.397.703.595 1.513.595 2.431 0 .918-.198 1.734-.595 2.448a4.146 4.146 0 0 1-1.649 1.632c-.691.385-1.479.578-2.363.578-1.224 0-2.193-.408-2.907-1.224v4.403h-2.125V6.922h2.023v1.19c.352-.43.782-.754 1.292-.969a4.459 4.459 0 0 1 1.717-.323zm-.238 7.48c.782 0 1.423-.26 1.921-.782.51-.521.765-1.207.765-2.057 0-.85-.255-1.536-.765-2.057-.498-.521-1.139-.782-1.921-.782-.51 0-.969.119-1.377.357a2.46 2.46 0 0 0-.969.986c-.238.43-.357.93-.357 1.496 0 .567.119 1.065.357 1.496.238.43.561.765.969 1.003.408.227.867.34 1.377.34zm10.227-7.48c1.337 0 2.357.323 3.06.969.714.635 1.071 1.598 1.071 2.89V16h-2.006v-1.105c-.261.397-.635.703-1.122.918-.476.204-1.054.306-1.734.306-.68 0-1.275-.113-1.785-.34-.51-.238-.907-.561-1.19-.969a2.537 2.537 0 0 1-.408-1.411c0-.816.3-1.468.901-1.955.612-.499 1.57-.748 2.873-.748h2.346v-.136c0-.635-.193-1.122-.578-1.462-.374-.34-.935-.51-1.683-.51-.51 0-1.014.08-1.513.238a3.71 3.71 0 0 0-1.241.663l-.833-1.547c.476-.363 1.048-.64 1.717-.833a7.641 7.641 0 0 1 2.125-.289zm-.289 7.752c.533 0 1.003-.119 1.411-.357.419-.25.714-.6.884-1.054v-1.054h-2.193c-1.224 0-1.836.402-1.836 1.207 0 .385.153.691.459.918.306.227.731.34 1.275.34zM21.559 31.119c-.94 0-1.785-.198-2.533-.595a4.387 4.387 0 0 1-1.751-1.649c-.42-.714-.629-1.519-.629-2.414 0-.895.21-1.694.629-2.397a4.416 4.416 0 0 1 1.734-1.649c.748-.397 1.598-.595 2.55-.595.895 0 1.677.181 2.346.544a3.52 3.52 0 0 1 1.53 1.564l-1.632.952c-.26-.42-.59-.731-.986-.935a2.57 2.57 0 0 0-1.275-.323c-.793 0-1.45.26-1.972.782-.521.51-.782 1.196-.782 2.057s.255 1.553.765 2.074c.521.51 1.184.765 1.989.765.465 0 .89-.102 1.275-.306a2.64 2.64 0 0 0 .986-.952l1.632.952a3.717 3.717 0 0 1-1.547 1.581c-.669.363-1.445.544-2.329.544zm10.577-8.755c.861 0 1.62.187 2.278.561a3.823 3.823 0 0 1 1.53 1.53c.374.657.56 1.411.56 2.261 0 .873-.203 1.649-.611 2.329a4.175 4.175 0 0 1-1.717 1.564c-.737.374-1.575.561-2.516.561-1.575 0-2.794-.521-3.655-1.564-.861-1.043-1.292-2.544-1.292-4.505 0-1.825.39-3.27 1.173-4.335.782-1.065 1.978-1.768 3.587-2.108l4.216-.901.306 1.904-3.825.782c-1.1.227-1.921.612-2.465 1.156-.544.544-.861 1.309-.952 2.295a4.108 4.108 0 0 1 1.479-1.122 4.415 4.415 0 0 1 1.904-.408zm-.425 7.089c.782 0 1.41-.25 1.887-.748.487-.51.73-1.156.73-1.938s-.243-1.411-.73-1.887c-.476-.476-1.105-.714-1.887-.714-.793 0-1.434.238-1.921.714-.487.476-.731 1.105-.731 1.887 0 .793.244 1.44.73 1.938.5.499 1.14.748 1.922.748zm10.897 1.666c-.918 0-1.745-.198-2.482-.595a4.416 4.416 0 0 1-1.734-1.649c-.408-.714-.612-1.519-.612-2.414 0-.895.204-1.694.612-2.397a4.416 4.416 0 0 1 1.734-1.649c.736-.397 1.564-.595 2.482-.595.93 0 1.762.198 2.499.595a4.297 4.297 0 0 1 1.717 1.649c.42.703.629 1.502.629 2.397 0 .895-.21 1.7-.63 2.414a4.297 4.297 0 0 1-1.716 1.649c-.737.397-1.57.595-2.5.595zm0-1.819c.782 0 1.428-.26 1.938-.782.51-.521.765-1.207.765-2.057 0-.85-.255-1.536-.765-2.057-.51-.521-1.156-.782-1.938-.782s-1.428.26-1.938.782c-.499.521-.748 1.207-.748 2.057 0 .85.25 1.536.748 2.057.51.521 1.156.782 1.938.782zm10.718-1.938h-1.649V31h-2.125v-9.078h2.125v3.672h1.7l2.686-3.672h2.278l-3.298 4.369L58.562 31h-2.499l-2.737-3.638zm14.788-5.44l-4.25 9.809c-.396.986-.878 1.677-1.445 2.074-.566.408-1.252.612-2.057.612-.453 0-.9-.074-1.343-.221-.442-.147-.804-.351-1.088-.612l.85-1.564c.204.193.442.346.714.459.284.113.567.17.85.17.374 0 .68-.096.918-.289.25-.193.476-.516.68-.969l.153-.357-3.96-9.112h2.21l2.855 6.715 2.873-6.715h2.04z" fill="#000"/><path fill="#E51937" d="M5 5h4v122H5z"/><circle cx="7" cy="130" r="5.5" fill="#fff" stroke="#E51937" stroke-width="3"/></svg>
